X:201
T:Dame, merci, une rien vos deman
R:Jeu - Parti
C:Thibaut de Champagne
M:6/8
L:1/8
Q:1/4=100
K:C 
V:1
B3 cBA | G3 Bc2 | d3 cd/2c/2B | cd3z2z | 
e3 fg2 | g2f ed2 | B3 cde | e/2d/2dc d2z | 
B3 cBA | G3 Bc2 | d3 cd/2c/2B | cd3z2z | 
e3 fg2 | g2f ed2 | B3 cde/2d/2 | dc2 d2z | 
e2d cB2 | d3 eg2 | f3 gfd | ede c2z | 
g3 ag2 | fg2 fe2 | d3 efg | fe3z2z | 
f2e ded | c3 eg2 | f3 ed2 | e/2f/2ec d3 |]





